lib/svg/watch.svg

<svg xmlns="http://www.w3.org/2000/svg" width="12" height="16" viewBox="0 0 12 16"><path d="M6 8h2v1H5V5h1v3zm6 0c0 2.22-1.2 4.16-3 5.19V15c0 .55-.45 1-1 1H4c-.55 0-1-.45-1-1v-1.81C1.2 12.16 0 10.22 0 8s1.2-4.16 3-5.19V1c0-.55.45-1 1-1h4c.55 0 1 .45 1 1v1.81c1.8 1.03 3 2.97 3 5.19zm-1 0c0-2.77-2.23-5-5-5S1 5.23 1 8s2.23 5 5 5 5-2.23 5-5z"/></svg>

<?xml version="1.0" encoding="UTF-8" standalone="no"?>
<svg width="12px" height="16px" viewBox="0 0 12 16" version="1.1" xmlns="http://www.w3.org/2000/svg" xmlns:xlink="http://www.w3.org/1999/xlink">
    <!-- Generator: Sketch 3.8.3 (29802) - http://www.bohemiancoding.com/sketch -->
    <title>watch</title>
    <desc>Created with Sketch.</desc>
    <defs></defs>
    <g id="Octicons" stroke="none" stroke-width="1" fill="none" fill-rule="evenodd">
        <g id="watch" fill="#000000">
            <path d="M6,8 L8,8 L8,9 L5,9 L5,5 L6,5 L6,8 L6,8 Z M12,8 C12,10.22 10.8,12.16 9,13.19 L9,15 C9,15.55 8.55,16 8,16 L4,16 C3.45,16 3,15.55 3,15 L3,13.19 C1.2,12.16 0,10.22 0,8 C0,5.78 1.2,3.84 3,2.81 L3,1 C3,0.45 3.45,0 4,0 L8,0 C8.55,0 9,0.45 9,1 L9,2.81 C10.8,3.84 12,5.78 12,8 L12,8 Z M11,8 C11,5.23 8.77,3 6,3 C3.23,3 1,5.23 1,8 C1,10.77 3.23,13 6,13 C8.77,13 11,10.77 11,8 L11,8 Z" id="Shape"></path>
        </g>
    </g>
</svg>
